icons/hand-wipe-paper_fill.svg

<svg width="48" height="48" viewBox="0 0 48 48" fill="none" xmlns="http://www.w3.org/2000/svg">
<path fill-rule="evenodd" clip-rule="evenodd" d="M7 6C7.55228 6 8 6.44772 8 7V13.8571C8 14.4058 8.23064 14.9449 8.66232 15.3519C9.096 15.7608 9.69613 16 10.3333 16H12C12.5523 16 13 16.4477 13 17C13 17.5523 12.5523 18 12 18H10.3333C9.20243 18 8.10686 17.577 7.2903 16.8071C6.47174 16.0353 6 14.9755 6 13.8571V7C6 6.44772 6.44772 6 7 6Z" fill="black"/>
<path d="M7 6H41V12C41 14.7614 38.7614 17 36 17H35V13H13V17H12C9.23858 17 7 14.7614 7 12V6Z" fill="black"/>
<path fill-rule="evenodd" clip-rule="evenodd" d="M41 6C41.5523 6 42 6.44772 42 7V13.8571C42 14.9755 41.5283 16.0353 40.7097 16.8071C39.8931 17.577 38.7976 18 37.6667 18H36C35.4477 18 35 17.5523 35 17C35 16.4477 35.4477 16 36 16H37.6667C38.3039 16 38.904 15.7608 39.3377 15.3519C39.7694 14.9449 40 14.4058 40 13.8571V7C40 6.44772 40.4477 6 41 6Z" fill="black"/>
<path fill-rule="evenodd" clip-rule="evenodd" d="M11 12C11 11.4477 11.4477 11 12 11H36C36.5523 11 37 11.4477 37 12V36C37 36.3466 36.8205 36.6684 36.5257 36.8507C36.2309 37.0329 35.8628 37.0494 35.5528 36.8944L33 35.618L30.4472 36.8944C30.1657 37.0352 29.8343 37.0352 29.5528 36.8944L27 35.618L24.4472 36.8944C24.1841 37.026 23.8764 37.035 23.6061 36.9191L20.6777 35.6641C20.1701 35.4466 19.9349 34.8587 20.1525 34.3511C20.37 33.8434 20.9579 33.6083 21.4655 33.8258L23.9676 34.8982L26.5528 33.6056C26.8343 33.4648 27.1657 33.4648 27.4472 33.6056L30 34.882L32.5528 33.6056C32.8343 33.4648 33.1657 33.4648 33.4472 33.6056L35 34.382V13H13V29C13 29.5523 12.5523 30 12 30C11.4477 30 11 29.5523 11 29V12Z" fill="black"/>
<path fill-rule="evenodd" clip-rule="evenodd" d="M12.8476 23.4693C13.1407 23.9374 12.9988 24.5545 12.5307 24.8476L11.2408 25.6552C11.2407 25.6552 11.2408 25.6552 11.2408 25.6552C10.2353 26.2849 9.41745 27.1338 8.85464 28.1216C8.29206 29.1089 7.99998 30.207 8 31.3189V41C8 41.5523 7.55228 42 7 42C6.44772 42 6 41.5523 6 41V31.319C6 31.319 6 31.319 6 31.319C5.99998 29.8544 6.38511 28.4158 7.11692 27.1314C7.84846 25.8475 8.90224 24.7598 10.1792 23.9601L11.4693 23.1524C11.9374 22.8593 12.5545 23.0012 12.8476 23.4693Z" fill="black"/>
<path fill-rule="evenodd" clip-rule="evenodd" d="M21.2352 31.0814C21.7238 30.1794 21.3684 29.052 20.4509 28.5933C19.585 28.1604 18.5317 28.4832 18.0571 29.327L14.3813 35.8619L12.6381 34.8814L16.3139 28.3465C17.3115 26.573 19.5253 25.8945 21.3453 26.8044C23.2738 27.7687 24.0207 30.1381 22.9938 32.0339L17.8793 41.4762C17.6162 41.9618 17.0093 42.1423 16.5237 41.8792C16.0381 41.6162 15.8576 41.0093 16.1207 40.5236L21.2352 31.0814Z" fill="black"/>
</svg>

<svg
  xmlns="http://www.w3.org/2000/svg"
  width="24"
  height="24"
  viewBox="0 0 24 24"
  fill="none"
  stroke="currentColor"
  stroke-width="2"
  stroke-linecap="round"
  stroke-linejoin="round"
>
  <path
    fill-rule="evenodd"
    d="M7 6a1 1 0 0 1 1 1v6.857c0 .549.23 1.088.662 1.495a2.44 2.44 0 0 0 1.671.648H12a1 1 0 1 1 0 2h-1.667a4.44 4.44 0 0 1-3.043-1.193A4.06 4.06 0 0 1 6 13.857V7a1 1 0 0 1 1-1"
    clip-rule="evenodd"
  />
  <path d="M7 6h34v6a5 5 0 0 1-5 5h-1v-4H13v4h-1a5 5 0 0 1-5-5z" />
  <path
    fill-rule="evenodd"
    d="M41 6a1 1 0 0 1 1 1v6.857a4.05 4.05 0 0 1-1.29 2.95A4.44 4.44 0 0 1 37.667 18H36a1 1 0 1 1 0-2h1.667c.637 0 1.237-.24 1.67-.648.432-.407.663-.946.663-1.495V7a1 1 0 0 1 1-1"
    clip-rule="evenodd"
  />
  <path
    fill-rule="evenodd"
    d="M11 12a1 1 0 0 1 1-1h24a1 1 0 0 1 1 1v24a1 1 0 0 1-1.447.894L33 35.618l-2.553 1.276a1 1 0 0 1-.894 0L27 35.618l-2.553 1.276a1 1 0 0 1-.84.025l-2.93-1.255a1 1 0 1 1 .788-1.838l2.503 1.072 2.585-1.292a1 1 0 0 1 .894 0L30 34.882l2.553-1.276a1 1 0 0 1 .894 0l1.553.776V13H13v16a1 1 0 1 1-2 0z"
    clip-rule="evenodd"
  />
  <path
    fill-rule="evenodd"
    d="M12.848 23.47a1 1 0 0 1-.317 1.378l-1.29.807a7 7 0 0 0-2.386 2.467A6.45 6.45 0 0 0 8 31.319V41a1 1 0 1 1-2 0v-9.681a8.45 8.45 0 0 1 1.117-4.188 9 9 0 0 1 3.062-3.17l1.29-.809a1 1 0 0 1 1.379.317"
    clip-rule="evenodd"
  />
  <path
    fill-rule="evenodd"
    d="M21.235 31.081a1.815 1.815 0 0 0-3.178-1.754l-3.676 6.535-1.743-.98 3.676-6.535a3.815 3.815 0 0 1 6.68 3.687l-5.115 9.442a1 1 0 1 1-1.758-.952z"
    clip-rule="evenodd"
  />
</svg>
